{"type":"map","version":"1.10","tiledversion":"1.11.0","orientation":"isometric","renderorder":"right-down","infinite":false,"width":40,"height":40,"tilewidth":128,"tileheight":64,"nextlayerid":5,"nextobjectid":182,"tilesets":[{"firstgid":1,"name":"ground","image":"../tiles/ground.png","imagewidth":1152,"imageheight":64,"tilewidth":128,"tileheight":64,"tilecount":9,"columns":9,"margin":0,"spacing":0}],"layers":[{"id":1,"name":"ground","type":"tilelayer","x":0,"y":0,"width":40,"height":40,"opacity":1,"visible":true,"data":[2,2,2,2,2,2,2,2,2,2,2,2,2,2,2,2,2,2,6,6,6,6,6,6,6,6,6,6,6,6,6,6,6,6,6,6,6,6,6,6,2,2,2,2,2,2,2,2,2,2,2,2,2,2,2,2,2,2,6,6,6,6,6,6,6,6,6,6,6,6,6,6,6,6,6,6,6,6,6,6,2,2,2,2,2,2,2,2,2,2,2,2,2,2,2,2,2,2,6,6,6,6,6,6,6,6,6,6,6,6,6,6,6,6,6,6,6,6,6,6,2,2,2,2,2,2,2,2,2,2,2,2,2,2,2,2,2,2,2,6,6,6,6,6,6,6,6,6,6,6,6,6,6,6,6,6,6,6,6,6,2,2,2,2,2,2,2,2,2,2,2,2,2,2,2,2,2,2,2,6,6,6,6,6,6,6,6,6,6,6,6,6,6,6,6,6,6,6,6,6,2,2,2,2,2,2,2,2,2,2,2,2,2,2,2,2,2,2,2,6,6,6,6,6,6,6,6,6,6,6,6,6,6,6,6,6,6,6,6,6,2,2,2,2,2,2,2,2,2,2,2,2,2,2,2,2,2,2,2,6,6,6,6,6,6,6,6,6,6,6,6,6,6,6,6,6,6,6,6,6,2,2,2,2,2,2,2,2,2,2,2,2,2,2,2,2,2,2,1,1,6,1,1,1,6,6,6,6,6,6,6,6,6,6,6,6,6,6,6,6,2,2,2,2,2,2,2,2,2,2,2,2,2,2,2,2,2,1,1,1,1,1,1,1,1,6,6,6,6,6,6,6,6,6,6,6,6,6,6,6,2,2,2,2,2,2,2,2,2,2,2,2,1,2,1,2,1,1,1,1,1,1,1,1,1,6,1,1,6,6,6,6,6,6,6,6,6,6,6,6,2,2,2,2,2,2,2,2,2,2,2,1,2,1,1,1,1,1,1,1,1,1,1,1,1,1,1,6,6,6,6,6,6,6,6,6,6,6,6,6,2,2,2,2,2,2,2,2,2,2,1,1,1,1,1,1,1,1,1,1,3,1,1,1,1,1,1,1,1,1,6,6,6,6,6,6,6,6,6,6,2,2,2,2,2,2,2,2,2,2,1,1,1,1,1,1,1,1,1,1,3,1,1,1,1,1,1,1,6,1,1,6,6,6,6,6,6,6,6,6,5,5,2,2,2,2,2,2,2,2,1,1,1,1,1,1,1,1,1,1,3,1,1,1,1,1,1,1,1,1,6,6,6,6,6,6,6,6,7,7,5,5,5,5,5,2,2,2,2,2,1,1,1,1,1,1,1,1,1,1,3,1,1,1,1,1,1,1,1,1,6,1,6,6,6,8,8,7,7,7,5,5,5,5,5,5,5,5,1,1,1,1,1,3,3,3,3,3,3,3,3,3,3,3,3,3,3,3,1,1,1,6,8,8,8,8,8,7,7,7,5,5,5,5,5,5,5,5,1,1,1,1,1,1,1,1,1,1,1,1,3,1,1,1,1,1,1,1,1,1,1,8,8,8,8,8,8,7,7,7,5,5,5,5,5,5,5,5,5,1,1,1,1,1,1,1,1,1,1,1,1,1,1,1,1,1,1,1,1,1,1,1,8,8,8,8,8,7,7,7,5,5,5,5,5,5,5,1,1,1,1,1,1,1,1,1,1,1,1,1,1,1,1,1,1,1,1,1,1,1,1,1,1,8,8,8,8,7,7,7,5,5,5,5,5,5,5,5,1,1,1,1,1,1,1,1,1,1,1,1,1,1,1,1,1,1,1,1,1,1,1,1,1,8,8,8,8,7,7,7,5,5,5,5,5,5,5,5,1,1,1,1,1,1,1,1,1,1,4,4,4,4,4,1,1,1,1,1,1,1,1,8,1,8,8,8,8,7,7,7,5,5,5,5,5,5,5,1,1,1,1,1,1,1,1,1,1,4,4,4,4,4,4,4,1,1,1,1,1,1,1,8,1,8,8,8,8,7,7,7,5,5,5,5,5,5,5,5,1,1,1,1,1,1,1,1,1,4,4,4,4,4,4,4,1,1,1,1,1,1,1,1,8,8,8,8,8,7,7,7,5,5,5,5,5,5,5,5,1,1,1,1,1,1,1,1,1,4,4,4,4,4,4,4,1,1,1,1,1,1,1,8,8,8,8,8,8,7,7,7,5,5,5,5,5,5,5,5,1,1,1,1,1,1,1,1,1,1,4,4,4,4,4,1,1,1,1,1,1,1,1,1,8,8,8,8,8,7,7,7,5,5,5,5,5,5,5,5,1,1,1,1,1,1,1,1,1,1,1,1,3,1,1,1,1,1,1,1,1,1,1,8,8,8,8,8,8,7,7,7,5,5,5,5,5,5,5,5,5,1,1,1,3,3,3,3,3,3,3,3,3,3,3,3,3,3,3,3,3,1,8,8,8,8,8,8,7,7,7,7,5,5,5,5,5,5,5,5,5,5,5,1,1,1,1,1,1,1,1,1,1,1,1,1,1,1,1,1,1,1,8,8,8,8,8,8,7,7,7,7,5,5,5,5,5,5,5,5,5,5,5,1,1,1,1,1,1,1,1,1,1,1,1,1,1,1,1,1,1,8,1,8,8,8,8,7,7,7,7,7,5,5,5,5,5,5,5,5,5,5,5,1,1,5,1,1,1,1,1,1,1,1,1,1,1,1,9,1,8,8,8,8,8,8,8,7,7,7,7,7,5,5,5,5,5,5,5,5,5,5,5,5,5,5,1,1,1,1,1,1,1,1,1,1,1,1,1,1,9,8,8,8,8,8,7,7,7,7,7,7,5,5,5,5,5,5,5,5,5,5,5,5,5,9,9,1,1,1,1,1,1,1,1,1,1,9,9,9,9,9,8,8,8,7,7,7,7,7,7,7,5,5,5,5,5,5,5,5,5,5,5,5,5,9,9,9,1,9,1,1,1,9,1,9,9,9,9,9,9,9,8,8,7,7,7,7,7,7,7,7,5,5,5,5,5,5,5,5,5,5,5,5,9,9,9,9,9,9,9,9,9,9,9,9,9,9,9,9,9,9,9,7,7,7,7,7,7,7,7,7,5,5,5,5,5,5,5,5,5,5,5,5,9,9,9,9,9,9,9,9,9,9,9,9,9,9,9,9,9,9,9,9,7,7,7,7,7,7,7,7,5,5,5,5,5,5,5,5,5,5,5,9,9,9,9,9,9,9,9,9,9,9,9,9,9,9,9,9,9,9,9,9,9,7,7,7,7,7,7,7,5,5,5,5,5,5,5,5,5,5,9,9,9,9,9,9,9,9,9,9,9,9,9,9,9,9,9,9,9,9,9,9,9,9,7,7,7,7,7,7,5,5,5,5,5,5,5,5,5,5,9,9,9,9,9,9,9,9,9,9,9,9,9,9,9,9,9,9,9,9,9,9,9,9,9,7,7,7,7,7,5,5,5,5,5,5,5,5,5,9,9,9,9,9,9,9,9,9,9,9,9,9,9,9,9,9,9,9,9,9,9,9,9,9,9,9,7,7,7,7,5,5,5,5,5,5,5,5,5,9,9,9,9,9,9,9,9,9,9,9,9,9,9,9,9,9,9,9,9,9,9,9,9,9,9,9,7,7,7,7]},{"id":2,"name":"collision","type":"tilelayer","x":0,"y":0,"width":40,"height":40,"opacity":1,"visible":false,"data":[0,0,0,0,0,0,0,0,0,0,0,1,1,0,0,1,0,0,0,0,0,0,1,0,0,0,0,0,1,0,0,1,0,0,0,0,0,1,1,0,1,1,0,1,0,0,0,1,0,0,0,1,0,0,0,1,1,0,0,0,0,0,0,0,0,0,0,1,1,0,0,0,0,0,0,0,0,0,0,0,0,0,0,0,1,0,0,0,0,0,0,0,1,0,0,0,0,0,0,0,0,0,1,1,0,0,0,0,0,0,0,0,0,0,1,0,1,0,0,0,0,0,0,0,0,0,0,0,1,0,0,0,0,0,0,0,0,0,0,0,0,0,1,1,0,0,0,0,0,0,1,0,0,0,0,0,1,1,0,0,0,0,0,0,0,0,0,0,1,0,0,1,0,1,0,0,0,0,0,0,0,0,1,1,0,0,1,0,0,0,1,0,0,0,0,0,0,0,0,0,1,0,0,1,0,0,0,0,0,0,0,1,0,0,1,0,0,0,0,1,0,1,1,0,0,1,0,0,0,0,1,1,0,0,0,0,0,0,0,1,0,0,0,0,0,0,0,0,0,0,0,0,0,0,1,0,0,0,0,1,1,0,0,0,0,0,0,0,0,0,1,0,0,0,1,0,0,1,0,0,0,0,0,0,0,1,0,0,0,0,0,0,0,1,0,0,1,0,0,0,0,0,0,0,0,1,1,1,0,0,1,1,0,1,0,0,1,1,0,0,1,0,0,0,1,1,1,0,0,0,0,0,0,0,0,0,0,1,0,1,0,0,0,0,0,0,0,0,0,1,0,0,1,0,0,1,0,0,0,1,1,0,1,0,1,0,0,0,0,0,0,0,0,0,0,0,0,0,0,0,0,0,0,0,0,0,0,0,0,0,0,0,0,0,0,0,0,1,0,0,0,1,0,0,1,0,0,0,0,0,0,0,0,1,0,0,0,0,0,1,1,1,0,1,0,0,0,0,0,0,0,0,0,0,0,1,0,0,0,1,1,0,0,0,0,0,0,0,0,1,0,0,0,0,0,0,0,0,0,0,0,0,0,0,0,0,0,0,1,0,0,0,0,0,0,0,0,0,0,0,0,0,0,0,0,0,0,0,0,1,0,0,0,0,0,0,0,0,0,0,0,0,0,0,0,0,0,0,0,0,0,1,0,1,1,0,0,0,0,0,0,0,0,0,1,0,1,0,0,0,0,0,1,0,0,0,0,0,0,0,0,0,0,0,0,0,0,1,0,0,0,1,0,1,0,0,0,0,1,1,0,0,0,0,0,1,0,0,0,0,0,1,1,1,1,0,0,0,0,0,0,0,0,0,0,0,1,1,1,0,0,0,0,0,1,0,0,1,1,1,0,0,0,0,0,0,0,0,0,0,0,0,0,0,0,0,0,0,0,0,0,0,0,0,0,0,0,0,0,0,0,0,0,0,0,0,0,1,1,1,1,0,0,1,0,0,0,0,0,0,0,0,0,0,0,0,0,0,0,0,0,0,0,0,0,0,0,0,0,0,0,0,0,0,0,0,0,1,1,1,0,0,0,0,0,0,0,0,0,0,0,0,0,0,1,0,0,1,0,1,1,1,0,1,0,0,0,0,0,0,0,0,0,0,0,0,0,1,1,1,0,0,0,0,0,0,0,0,0,1,0,0,0,0,0,0,0,0,0,1,1,1,0,0,0,0,0,0,0,0,0,0,0,0,0,0,0,1,1,1,0,1,0,0,0,0,0,0,0,0,0,0,0,0,0,0,0,0,0,1,1,1,0,0,0,0,0,0,0,0,0,0,0,0,0,0,0,1,1,1,0,0,1,0,0,0,0,0,0,0,0,0,0,0,0,0,0,0,0,0,0,0,0,0,0,0,0,0,0,0,0,0,0,0,0,0,0,1,1,1,0,0,0,0,0,0,0,0,0,0,0,0,0,0,0,0,0,0,1,0,0,0,1,0,1,0,0,0,0,0,0,1,0,0,0,0,0,1,1,1,0,0,1,0,0,0,0,0,0,0,0,0,0,0,0,0,0,0,0,0,0,0,0,0,0,1,0,0,0,0,0,0,0,1,0,0,0,1,1,1,0,0,0,0,0,0,0,0,0,1,0,0,0,0,0,0,0,0,0,0,1,0,0,0,0,0,0,0,0,0,0,0,0,0,0,0,0,1,1,1,0,0,0,0,0,0,0,0,0,0,0,0,0,0,0,0,0,0,0,0,0,0,0,0,0,0,0,0,0,0,0,0,0,0,0,0,0,1,1,1,0,0,0,1,0,0,1,0,1,0,0,0,1,1,0,0,0,0,0,0,0,0,0,0,0,0,0,1,1,1,0,0,0,0,0,0,1,1,1,1,0,0,0,0,0,0,0,0,0,0,0,0,0,0,0,0,0,0,0,0,0,0,0,0,0,0,0,0,0,0,0,0,0,0,0,0,1,1,1,1,0,0,0,0,0,0,0,0,0,0,0,0,0,0,0,0,0,0,0,0,0,0,0,0,0,0,0,0,0,0,0,0,0,0,0,0,1,1,1,1,0,0,0,0,0,0,0,0,0,0,0,0,0,0,0,0,0,0,0,0,0,0,0,0,0,0,0,0,0,0,0,0,0,1,0,1,1,1,1,1,0,0,0,0,0,0,1,0,0,0,0,0,1,0,0,0,0,0,0,0,0,0,0,0,0,0,0,0,0,0,0,0,0,0,0,1,1,1,1,1,0,0,0,0,0,0,0,0,0,0,0,0,1,0,0,0,0,0,0,0,0,0,0,0,0,0,0,0,0,0,0,0,0,0,1,1,1,1,1,1,0,0,0,0,0,0,0,0,0,0,0,0,0,0,0,0,0,0,0,0,0,0,0,0,0,0,0,0,0,0,0,0,0,1,1,1,1,1,1,1,0,0,0,0,0,0,0,0,0,0,0,0,0,0,0,0,0,0,0,0,0,0,0,0,0,0,0,0,0,0,0,0,1,1,1,1,1,1,1,1,0,0,0,0,0,1,0,0,0,0,0,1,0,0,0,0,0,0,0,0,1,0,0,0,0,0,0,0,0,0,0,1,1,1,1,1,1,1,1,1,0,0,0,0,0,0,0,0,0,0,0,0,0,0,0,0,0,0,1,0,0,0,0,0,0,0,0,0,0,0,0,0,1,1,1,1,1,1,1,1,0,0,0,0,0,0,0,0,0,0,0,1,0,0,0,0,0,0,0,0,0,0,0,0,0,0,0,0,0,0,0,0,0,1,1,1,1,1,1,1,0,0,0,0,0,0,0,0,0,0,0,0,0,0,0,0,0,0,0,0,0,0,0,0,0,0,0,0,0,0,0,0,0,0,1,1,1,1,1,1,0,0,0,0,0,0,0,0,0,0,0,0,0,0,0,0,0,0,0,0,1,0,0,0,0,0,0,0,0,0,0,0,0,1,0,1,1,1,1,1,0,0,0,0,0,0,1,0,0,0,1,0,0,0,0,0,0,0,0,0,0,0,0,1,0,0,0,0,0,0,1,1,0,0,0,0,1,1,1,1,0,0,0,0,0,0,0,0,1,0,0,0,0,0,0,0,1,0,0,0,0,0,0,1,0,0,0,0,0,1,0,0,0,0,0,0,1,1,1,1]},{"id":3,"name":"decoration","type":"objectgroup","x":0,"y":0,"opacity":1,"visible":true,"draworder":"topdown","objects":[{"id":1,"name":"fountain","type":"","point":true,"x":1312,"y":1504,"width":0,"height":0,"rotation":0,"visible":true,"properties":[{"name":"tileX","type":"int","value":20},{"name":"tileY","type":"int","value":23}]},{"id":2,"name":"lantern","type":"","point":true,"x":1184,"y":1376,"width":0,"height":0,"rotation":0,"visible":true,"properties":[{"name":"tileX","type":"int","value":18},{"name":"tileY","type":"int","value":21}]},{"id":3,"name":"lantern","type":"","point":true,"x":1440,"y":1376,"width":0,"height":0,"rotation":0,"visible":true,"properties":[{"name":"tileX","type":"int","value":22},{"name":"tileY","type":"int","value":21}]},{"id":4,"name":"palm-bend","type":"","point":true,"x":736,"y":32,"width":0,"height":0,"rotation":0,"visible":true,"properties":[{"name":"tileX","type":"int","value":11},{"name":"tileY","type":"int","value":0}]},{"id":5,"name":"palm-tall","type":"","point":true,"x":800,"y":32,"width":0,"height":0,"rotation":0,"visible":true,"properties":[{"name":"tileX","type":"int","value":12},{"name":"tileY","type":"int","value":0}]},{"id":6,"name":"tree-fat","type":"","point":true,"x":992,"y":32,"width":0,"height":0,"rotation":0,"visible":true,"properties":[{"name":"tileX","type":"int","value":15},{"name":"tileY","type":"int","value":0}]},{"id":7,"name":"pine-round","type":"","point":true,"x":1440,"y":32,"width":0,"height":0,"rotation":0,"visible":true,"properties":[{"name":"tileX","type":"int","value":22},{"name":"tileY","type":"int","value":0}]},{"id":8,"name":"rock-large","type":"","point":true,"x":1824,"y":32,"width":0,"height":0,"rotation":0,"visible":true,"properties":[{"name":"tileX","type":"int","value":28},{"name":"tileY","type":"int","value":0}]},{"id":9,"name":"pine-tall","type":"","point":true,"x":2016,"y":32,"width":0,"height":0,"rotation":0,"visible":true,"properties":[{"name":"tileX","type":"int","value":31},{"name":"tileY","type":"int","value":0}]},{"id":10,"name":"rock-large","type":"","point":true,"x":2400,"y":32,"width":0,"height":0,"rotation":0,"visible":true,"properties":[{"name":"tileX","type":"int","value":37},{"name":"tileY","type":"int","value":0}]},{"id":11,"name":"rock-tall","type":"","point":true,"x":2464,"y":32,"width":0,"height":0,"rotation":0,"visible":true,"properties":[{"name":"tileX","type":"int","value":38},{"name":"tileY","type":"int","value":0}]},{"id":12,"name":"palm-bend","type":"","point":true,"x":32,"y":96,"width":0,"height":0,"rotation":0,"visible":true,"properties":[{"name":"tileX","type":"int","value":0},{"name":"tileY","type":"int","value":1}]},{"id":13,"name":"palm-tall","type":"","point":true,"x":96,"y":96,"width":0,"height":0,"rotation":0,"visible":true,"properties":[{"name":"tileX","type":"int","value":1},{"name":"tileY","type":"int","value":1}]},{"id":14,"name":"palm-bend","type":"","point":true,"x":224,"y":96,"width":0,"height":0,"rotation":0,"visible":true,"properties":[{"name":"tileX","type":"int","value":3},{"name":"tileY","type":"int","value":1}]},{"id":15,"name":"palm-tall","type":"","point":true,"x":480,"y":96,"width":0,"height":0,"rotation":0,"visible":true,"properties":[{"name":"tileX","type":"int","value":7},{"name":"tileY","type":"int","value":1}]},{"id":16,"name":"flower-purple","type":"","point":true,"x":608,"y":96,"width":0,"height":0,"rotation":0,"visible":true,"properties":[{"name":"tileX","type":"int","value":9},{"name":"tileY","type":"int","value":1}]},{"id":17,"name":"bush-triangle","type":"","point":true,"x":736,"y":96,"width":0,"height":0,"rotation":0,"visible":true,"properties":[{"name":"tileX","type":"int","value":11},{"name":"tileY","type":"int","value":1}]},{"id":18,"name":"tree-fat","type":"","point":true,"x":992,"y":96,"width":0,"height":0,"rotation":0,"visible":true,"properties":[{"name":"tileX","type":"int","value":15},{"name":"tileY","type":"int","value":1}]},{"id":19,"name":"palm-bend","type":"","point":true,"x":1056,"y":96,"width":0,"height":0,"rotation":0,"visible":true,"properties":[{"name":"tileX","type":"int","value":16},{"name":"tileY","type":"int","value":1}]},{"id":20,"name":"pine-round","type":"","point":true,"x":1760,"y":96,"width":0,"height":0,"rotation":0,"visible":true,"properties":[{"name":"tileX","type":"int","value":27},{"name":"tileY","type":"int","value":1}]},{"id":21,"name":"pine-tall","type":"","point":true,"x":1824,"y":96,"width":0,"height":0,"rotation":0,"visible":true,"properties":[{"name":"tileX","type":"int","value":28},{"name":"tileY","type":"int","value":1}]},{"id":22,"name":"palm-tall","type":"","point":true,"x":288,"y":160,"width":0,"height":0,"rotation":0,"visible":true,"properties":[{"name":"tileX","type":"int","value":4},{"name":"tileY","type":"int","value":2}]},{"id":23,"name":"palm-bend","type":"","point":true,"x":800,"y":160,"width":0,"height":0,"rotation":0,"visible":true,"properties":[{"name":"tileX","type":"int","value":12},{"name":"tileY","type":"int","value":2}]},{"id":24,"name":"pine-tall","type":"","point":true,"x":1440,"y":160,"width":0,"height":0,"rotation":0,"visible":true,"properties":[{"name":"tileX","type":"int","value":22},{"name":"tileY","type":"int","value":2}]},{"id":25,"name":"rock-large","type":"","point":true,"x":1504,"y":160,"width":0,"height":0,"rotation":0,"visible":true,"properties":[{"name":"tileX","type":"int","value":23},{"name":"tileY","type":"int","value":2}]},{"id":26,"name":"rock-tall","type":"","point":true,"x":2208,"y":160,"width":0,"height":0,"rotation":0,"visible":true,"properties":[{"name":"tileX","type":"int","value":34},{"name":"tileY","type":"int","value":2}]},{"id":27,"name":"pine-round","type":"","point":true,"x":2336,"y":160,"width":0,"height":0,"rotation":0,"visible":true,"properties":[{"name":"tileX","type":"int","value":36},{"name":"tileY","type":"int","value":2}]},{"id":28,"name":"flower-purple","type":"","point":true,"x":288,"y":224,"width":0,"height":0,"rotation":0,"visible":true,"properties":[{"name":"tileX","type":"int","value":4},{"name":"tileY","type":"int","value":3}]},{"id":29,"name":"palm-bend","type":"","point":true,"x":544,"y":224,"width":0,"height":0,"rotation":0,"visible":true,"properties":[{"name":"tileX","type":"int","value":8},{"name":"tileY","type":"int","value":3}]},{"id":30,"name":"pine-round","type":"","point":true,"x":1440,"y":224,"width":0,"height":0,"rotation":0,"visible":true,"properties":[{"name":"tileX","type":"int","value":22},{"name":"tileY","type":"int","value":3}]},{"id":31,"name":"pine-tall","type":"","point":true,"x":1504,"y":224,"width":0,"height":0,"rotation":0,"visible":true,"properties":[{"name":"tileX","type":"int","value":23},{"name":"tileY","type":"int","value":3}]},{"id":32,"name":"rock-tall","type":"","point":true,"x":1952,"y":224,"width":0,"height":0,"rotation":0,"visible":true,"properties":[{"name":"tileX","type":"int","value":30},{"name":"tileY","type":"int","value":3}]},{"id":33,"name":"pine-round","type":"","point":true,"x":2336,"y":224,"width":0,"height":0,"rotation":0,"visible":true,"properties":[{"name":"tileX","type":"int","value":36},{"name":"tileY","type":"int","value":3}]},{"id":34,"name":"pine-round","type":"","point":true,"x":2400,"y":224,"width":0,"height":0,"rotation":0,"visible":true,"properties":[{"name":"tileX","type":"int","value":37},{"name":"tileY","type":"int","value":3}]},{"id":35,"name":"tree-fat","type":"","point":true,"x":544,"y":288,"width":0,"height":0,"rotation":0,"visible":true,"properties":[{"name":"tileX","type":"int","value":8},{"name":"tileY","type":"int","value":4}]},{"id":36,"name":"palm-bend","type":"","point":true,"x":736,"y":288,"width":0,"height":0,"rotation":0,"visible":true,"properties":[{"name":"tileX","type":"int","value":11},{"name":"tileY","type":"int","value":4}]},{"id":37,"name":"palm-tall","type":"","point":true,"x":864,"y":288,"width":0,"height":0,"rotation":0,"visible":true,"properties":[{"name":"tileX","type":"int","value":13},{"name":"tileY","type":"int","value":4}]},{"id":38,"name":"pine-tall","type":"","point":true,"x":1440,"y":288,"width":0,"height":0,"rotation":0,"visible":true,"properties":[{"name":"tileX","type":"int","value":22},{"name":"tileY","type":"int","value":4}]},{"id":39,"name":"rock-large","type":"","point":true,"x":1504,"y":288,"width":0,"height":0,"rotation":0,"visible":true,"properties":[{"name":"tileX","type":"int","value":23},{"name":"tileY","type":"int","value":4}]},{"id":40,"name":"pine-tall","type":"","point":true,"x":1696,"y":288,"width":0,"height":0,"rotation":0,"visible":true,"properties":[{"name":"tileX","type":"int","value":26},{"name":"tileY","type":"int","value":4}]},{"id":41,"name":"pine-round","type":"","point":true,"x":1952,"y":288,"width":0,"height":0,"rotation":0,"visible":true,"properties":[{"name":"tileX","type":"int","value":30},{"name":"tileY","type":"int","value":4}]},{"id":42,"name":"tree-fat","type":"","point":true,"x":32,"y":352,"width":0,"height":0,"rotation":0,"visible":true,"properties":[{"name":"tileX","type":"int","value":0},{"name":"tileY","type":"int","value":5}]},{"id":43,"name":"tree-fat","type":"","point":true,"x":224,"y":352,"width":0,"height":0,"rotation":0,"visible":true,"properties":[{"name":"tileX","type":"int","value":3},{"name":"tileY","type":"int","value":5}]},{"id":44,"name":"flower-purple","type":"","point":true,"x":352,"y":352,"width":0,"height":0,"rotation":0,"visible":true,"properties":[{"name":"tileX","type":"int","value":5},{"name":"tileY","type":"int","value":5}]},{"id":45,"name":"palm-tall","type":"","point":true,"x":736,"y":352,"width":0,"height":0,"rotation":0,"visible":true,"properties":[{"name":"tileX","type":"int","value":11},{"name":"tileY","type":"int","value":5}]},{"id":46,"name":"tree-fat","type":"","point":true,"x":928,"y":352,"width":0,"height":0,"rotation":0,"visible":true,"properties":[{"name":"tileX","type":"int","value":14},{"name":"tileY","type":"int","value":5}]},{"id":47,"name":"pine-tall","type":"","point":true,"x":1248,"y":352,"width":0,"height":0,"rotation":0,"visible":true,"properties":[{"name":"tileX","type":"int","value":19},{"name":"tileY","type":"int","value":5}]},{"id":48,"name":"pine-tall","type":"","point":true,"x":1376,"y":352,"width":0,"height":0,"rotation":0,"visible":true,"properties":[{"name":"tileX","type":"int","value":21},{"name":"tileY","type":"int","value":5}]},{"id":49,"name":"rock-tall","type":"","point":true,"x":1440,"y":352,"width":0,"height":0,"rotation":0,"visible":true,"properties":[{"name":"tileX","type":"int","value":22},{"name":"tileY","type":"int","value":5}]},{"id":50,"name":"pine-round","type":"","point":true,"x":1632,"y":352,"width":0,"height":0,"rotation":0,"visible":true,"properties":[{"name":"tileX","type":"int","value":25},{"name":"tileY","type":"int","value":5}]},{"id":51,"name":"pine-round","type":"","point":true,"x":1952,"y":352,"width":0,"height":0,"rotation":0,"visible":true,"properties":[{"name":"tileX","type":"int","value":30},{"name":"tileY","type":"int","value":5}]},{"id":52,"name":"pine-round","type":"","point":true,"x":2016,"y":352,"width":0,"height":0,"rotation":0,"visible":true,"properties":[{"name":"tileX","type":"int","value":31},{"name":"tileY","type":"int","value":5}]},{"id":53,"name":"pine-tall","type":"","point":true,"x":2528,"y":352,"width":0,"height":0,"rotation":0,"visible":true,"properties":[{"name":"tileX","type":"int","value":39},{"name":"tileY","type":"int","value":5}]},{"id":54,"name":"palm-tall","type":"","point":true,"x":928,"y":416,"width":0,"height":0,"rotation":0,"visible":true,"properties":[{"name":"tileX","type":"int","value":14},{"name":"tileY","type":"int","value":6}]},{"id":55,"name":"pine-round","type":"","point":true,"x":1248,"y":416,"width":0,"height":0,"rotation":0,"visible":true,"properties":[{"name":"tileX","type":"int","value":19},{"name":"tileY","type":"int","value":6}]},{"id":56,"name":"pine-round","type":"","point":true,"x":1312,"y":416,"width":0,"height":0,"rotation":0,"visible":true,"properties":[{"name":"tileX","type":"int","value":20},{"name":"tileY","type":"int","value":6}]},{"id":57,"name":"pine-tall","type":"","point":true,"x":1952,"y":416,"width":0,"height":0,"rotation":0,"visible":true,"properties":[{"name":"tileX","type":"int","value":30},{"name":"tileY","type":"int","value":6}]},{"id":58,"name":"pine-tall","type":"","point":true,"x":2208,"y":416,"width":0,"height":0,"rotation":0,"visible":true,"properties":[{"name":"tileX","type":"int","value":34},{"name":"tileY","type":"int","value":6}]},{"id":59,"name":"rock-tall","type":"","point":true,"x":2400,"y":416,"width":0,"height":0,"rotation":0,"visible":true,"properties":[{"name":"tileX","type":"int","value":37},{"name":"tileY","type":"int","value":6}]},{"id":60,"name":"tree-fat","type":"","point":true,"x":352,"y":480,"width":0,"height":0,"rotation":0,"visible":true,"properties":[{"name":"tileX","type":"int","value":5},{"name":"tileY","type":"int","value":7}]},{"id":61,"name":"flower-purple","type":"","point":true,"x":544,"y":480,"width":0,"height":0,"rotation":0,"visible":true,"properties":[{"name":"tileX","type":"int","value":8},{"name":"tileY","type":"int","value":7}]},{"id":62,"name":"palm-bend","type":"","point":true,"x":864,"y":480,"width":0,"height":0,"rotation":0,"visible":true,"properties":[{"name":"tileX","type":"int","value":13},{"name":"tileY","type":"int","value":7}]},{"id":63,"name":"palm-tall","type":"","point":true,"x":1056,"y":480,"width":0,"height":0,"rotation":0,"visible":true,"properties":[{"name":"tileX","type":"int","value":16},{"name":"tileY","type":"int","value":7}]},{"id":64,"name":"pine-round","type":"","point":true,"x":1632,"y":480,"width":0,"height":0,"rotation":0,"visible":true,"properties":[{"name":"tileX","type":"int","value":25},{"name":"tileY","type":"int","value":7}]},{"id":65,"name":"rock-large","type":"","point":true,"x":1696,"y":480,"width":0,"height":0,"rotation":0,"visible":true,"properties":[{"name":"tileX","type":"int","value":26},{"name":"tileY","type":"int","value":7}]},{"id":66,"name":"pine-round","type":"","point":true,"x":1760,"y":480,"width":0,"height":0,"rotation":0,"visible":true,"properties":[{"name":"tileX","type":"int","value":27},{"name":"tileY","type":"int","value":7}]},{"id":67,"name":"rock-large","type":"","point":true,"x":1952,"y":480,"width":0,"height":0,"rotation":0,"visible":true,"properties":[{"name":"tileX","type":"int","value":30},{"name":"tileY","type":"int","value":7}]},{"id":68,"name":"pine-round","type":"","point":true,"x":2016,"y":480,"width":0,"height":0,"rotation":0,"visible":true,"properties":[{"name":"tileX","type":"int","value":31},{"name":"tileY","type":"int","value":7}]},{"id":69,"name":"rock-large","type":"","point":true,"x":2144,"y":480,"width":0,"height":0,"rotation":0,"visible":true,"properties":[{"name":"tileX","type":"int","value":33},{"name":"tileY","type":"int","value":7}]},{"id":70,"name":"pine-tall","type":"","point":true,"x":2336,"y":480,"width":0,"height":0,"rotation":0,"visible":true,"properties":[{"name":"tileX","type":"int","value":36},{"name":"tileY","type":"int","value":7}]},{"id":71,"name":"pine-tall","type":"","point":true,"x":2400,"y":480,"width":0,"height":0,"rotation":0,"visible":true,"properties":[{"name":"tileX","type":"int","value":37},{"name":"tileY","type":"int","value":7}]},{"id":72,"name":"tree-fat","type":"","point":true,"x":32,"y":544,"width":0,"height":0,"rotation":0,"visible":true,"properties":[{"name":"tileX","type":"int","value":0},{"name":"tileY","type":"int","value":8}]},{"id":73,"name":"tree-fat","type":"","point":true,"x":288,"y":544,"width":0,"height":0,"rotation":0,"visible":true,"properties":[{"name":"tileX","type":"int","value":4},{"name":"tileY","type":"int","value":8}]},{"id":74,"name":"tree-fat","type":"","point":true,"x":352,"y":544,"width":0,"height":0,"rotation":0,"visible":true,"properties":[{"name":"tileX","type":"int","value":5},{"name":"tileY","type":"int","value":8}]},{"id":75,"name":"palm-tall","type":"","point":true,"x":416,"y":544,"width":0,"height":0,"rotation":0,"visible":true,"properties":[{"name":"tileX","type":"int","value":6},{"name":"tileY","type":"int","value":8}]},{"id":76,"name":"tree-detailed","type":"","point":true,"x":1120,"y":544,"width":0,"height":0,"rotation":0,"visible":true,"properties":[{"name":"tileX","type":"int","value":17},{"name":"tileY","type":"int","value":8}]},{"id":77,"name":"tree-default","type":"","point":true,"x":1248,"y":544,"width":0,"height":0,"rotation":0,"visible":true,"properties":[{"name":"tileX","type":"int","value":19},{"name":"tileY","type":"int","value":8}]},{"id":78,"name":"pine-round","type":"","point":true,"x":1888,"y":544,"width":0,"height":0,"rotation":0,"visible":true,"properties":[{"name":"tileX","type":"int","value":29},{"name":"tileY","type":"int","value":8}]},{"id":79,"name":"rock-large","type":"","point":true,"x":2080,"y":544,"width":0,"height":0,"rotation":0,"visible":true,"properties":[{"name":"tileX","type":"int","value":32},{"name":"tileY","type":"int","value":8}]},{"id":80,"name":"rock-large","type":"","point":true,"x":2272,"y":544,"width":0,"height":0,"rotation":0,"visible":true,"properties":[{"name":"tileX","type":"int","value":35},{"name":"tileY","type":"int","value":8}]},{"id":81,"name":"rock-tall","type":"","point":true,"x":2528,"y":544,"width":0,"height":0,"rotation":0,"visible":true,"properties":[{"name":"tileX","type":"int","value":39},{"name":"tileY","type":"int","value":8}]},{"id":82,"name":"palm-tall","type":"","point":true,"x":32,"y":608,"width":0,"height":0,"rotation":0,"visible":true,"properties":[{"name":"tileX","type":"int","value":0},{"name":"tileY","type":"int","value":9}]},{"id":83,"name":"palm-tall","type":"","point":true,"x":160,"y":608,"width":0,"height":0,"rotation":0,"visible":true,"properties":[{"name":"tileX","type":"int","value":2},{"name":"tileY","type":"int","value":9}]},{"id":84,"name":"palm-tall","type":"","point":true,"x":288,"y":608,"width":0,"height":0,"rotation":0,"visible":true,"properties":[{"name":"tileX","type":"int","value":4},{"name":"tileY","type":"int","value":9}]},{"id":85,"name":"rock-tall","type":"","point":true,"x":2400,"y":608,"width":0,"height":0,"rotation":0,"visible":true,"properties":[{"name":"tileX","type":"int","value":37},{"name":"tileY","type":"int","value":9}]},{"id":86,"name":"palm-bend","type":"","point":true,"x":96,"y":672,"width":0,"height":0,"rotation":0,"visible":true,"properties":[{"name":"tileX","type":"int","value":1},{"name":"tileY","type":"int","value":10}]},{"id":87,"name":"tree-fat","type":"","point":true,"x":288,"y":672,"width":0,"height":0,"rotation":0,"visible":true,"properties":[{"name":"tileX","type":"int","value":4},{"name":"tileY","type":"int","value":10}]},{"id":88,"name":"tree-default","type":"","point":true,"x":864,"y":672,"width":0,"height":0,"rotation":0,"visible":true,"properties":[{"name":"tileX","type":"int","value":13},{"name":"tileY","type":"int","value":10}]},{"id":89,"name":"log","type":"","point":true,"x":1120,"y":672,"width":0,"height":0,"rotation":0,"visible":true,"properties":[{"name":"tileX","type":"int","value":17},{"name":"tileY","type":"int","value":10}]},{"id":90,"name":"tree-detailed","type":"","point":true,"x":1504,"y":672,"width":0,"height":0,"rotation":0,"visible":true,"properties":[{"name":"tileX","type":"int","value":23},{"name":"tileY","type":"int","value":10}]},{"id":91,"name":"pine-tall","type":"","point":true,"x":2272,"y":672,"width":0,"height":0,"rotation":0,"visible":true,"properties":[{"name":"tileX","type":"int","value":35},{"name":"tileY","type":"int","value":10}]},{"id":92,"name":"pine-round","type":"","point":true,"x":2528,"y":672,"width":0,"height":0,"rotation":0,"visible":true,"properties":[{"name":"tileX","type":"int","value":39},{"name":"tileY","type":"int","value":10}]},{"id":93,"name":"bush-triangle","type":"","point":true,"x":32,"y":736,"width":0,"height":0,"rotation":0,"visible":true,"properties":[{"name":"tileX","type":"int","value":0},{"name":"tileY","type":"int","value":11}]},{"id":94,"name":"tree-fat","type":"","point":true,"x":608,"y":736,"width":0,"height":0,"rotation":0,"visible":true,"properties":[{"name":"tileX","type":"int","value":9},{"name":"tileY","type":"int","value":11}]},{"id":95,"name":"grass","type":"","point":true,"x":800,"y":736,"width":0,"height":0,"rotation":0,"visible":true,"properties":[{"name":"tileX","type":"int","value":12},{"name":"tileY","type":"int","value":11}]},{"id":96,"name":"tree-oak","type":"","point":true,"x":1824,"y":736,"width":0,"height":0,"rotation":0,"visible":true,"properties":[{"name":"tileX","type":"int","value":28},{"name":"tileY","type":"int","value":11}]},{"id":97,"name":"log","type":"","point":true,"x":1888,"y":736,"width":0,"height":0,"rotation":0,"visible":true,"properties":[{"name":"tileX","type":"int","value":29},{"name":"tileY","type":"int","value":11}]},{"id":98,"name":"palm-bend","type":"","point":true,"x":608,"y":800,"width":0,"height":0,"rotation":0,"visible":true,"properties":[{"name":"tileX","type":"int","value":9},{"name":"tileY","type":"int","value":12}]},{"id":99,"name":"rock-tall","type":"","point":true,"x":2016,"y":800,"width":0,"height":0,"rotation":0,"visible":true,"properties":[{"name":"tileX","type":"int","value":31},{"name":"tileY","type":"int","value":12}]},{"id":100,"name":"pine-round","type":"","point":true,"x":2144,"y":800,"width":0,"height":0,"rotation":0,"visible":true,"properties":[{"name":"tileX","type":"int","value":33},{"name":"tileY","type":"int","value":12}]},{"id":101,"name":"rock-large","type":"","point":true,"x":2208,"y":800,"width":0,"height":0,"rotation":0,"visible":true,"properties":[{"name":"tileX","type":"int","value":34},{"name":"tileY","type":"int","value":12}]},{"id":102,"name":"bush-triangle","type":"","point":true,"x":288,"y":864,"width":0,"height":0,"rotation":0,"visible":true,"properties":[{"name":"tileX","type":"int","value":4},{"name":"tileY","type":"int","value":13}]},{"id":103,"name":"tree-fat","type":"","point":true,"x":416,"y":864,"width":0,"height":0,"rotation":0,"visible":true,"properties":[{"name":"tileX","type":"int","value":6},{"name":"tileY","type":"int","value":13}]},{"id":104,"name":"tree-detailed","type":"","point":true,"x":800,"y":864,"width":0,"height":0,"rotation":0,"visible":true,"properties":[{"name":"tileX","type":"int","value":12},{"name":"tileY","type":"int","value":13}]},{"id":105,"name":"grass","type":"","point":true,"x":928,"y":864,"width":0,"height":0,"rotation":0,"visible":true,"properties":[{"name":"tileX","type":"int","value":14},{"name":"tileY","type":"int","value":13}]},{"id":106,"name":"tree-default","type":"","point":true,"x":1760,"y":864,"width":0,"height":0,"rotation":0,"visible":true,"properties":[{"name":"tileX","type":"int","value":27},{"name":"tileY","type":"int","value":13}]},{"id":107,"name":"pine-tall","type":"","point":true,"x":2016,"y":864,"width":0,"height":0,"rotation":0,"visible":true,"properties":[{"name":"tileX","type":"int","value":31},{"name":"tileY","type":"int","value":13}]},{"id":108,"name":"pine-tall","type":"","point":true,"x":2144,"y":864,"width":0,"height":0,"rotation":0,"visible":true,"properties":[{"name":"tileX","type":"int","value":33},{"name":"tileY","type":"int","value":13}]},{"id":109,"name":"palm-tall","type":"","point":true,"x":352,"y":928,"width":0,"height":0,"rotation":0,"visible":true,"properties":[{"name":"tileX","type":"int","value":5},{"name":"tileY","type":"int","value":14}]},{"id":110,"name":"tree-oak","type":"","point":true,"x":736,"y":928,"width":0,"height":0,"rotation":0,"visible":true,"properties":[{"name":"tileX","type":"int","value":11},{"name":"tileY","type":"int","value":14}]},{"id":111,"name":"pine-tall","type":"","point":true,"x":2208,"y":928,"width":0,"height":0,"rotation":0,"visible":true,"properties":[{"name":"tileX","type":"int","value":34},{"name":"tileY","type":"int","value":14}]},{"id":112,"name":"cactus-short","type":"","point":true,"x":32,"y":1056,"width":0,"height":0,"rotation":0,"visible":true,"properties":[{"name":"tileX","type":"int","value":0},{"name":"tileY","type":"int","value":16}]},{"id":113,"name":"cactus-short","type":"","point":true,"x":224,"y":1056,"width":0,"height":0,"rotation":0,"visible":true,"properties":[{"name":"tileX","type":"int","value":3},{"name":"tileY","type":"int","value":16}]},{"id":114,"name":"flower-yellow","type":"","point":true,"x":672,"y":1120,"width":0,"height":0,"rotation":0,"visible":true,"properties":[{"name":"tileX","type":"int","value":10},{"name":"tileY","type":"int","value":17}]},{"id":115,"name":"grass","type":"","point":true,"x":864,"y":1120,"width":0,"height":0,"rotation":0,"visible":true,"properties":[{"name":"tileX","type":"int","value":13},{"name":"tileY","type":"int","value":17}]},{"id":116,"name":"tree-oak","type":"","point":true,"x":928,"y":1120,"width":0,"height":0,"rotation":0,"visible":true,"properties":[{"name":"tileX","type":"int","value":14},{"name":"tileY","type":"int","value":17}]},{"id":117,"name":"tree-default","type":"","point":true,"x":1120,"y":1120,"width":0,"height":0,"rotation":0,"visible":true,"properties":[{"name":"tileX","type":"int","value":17},{"name":"tileY","type":"int","value":17}]},{"id":118,"name":"tree-default","type":"","point":true,"x":1504,"y":1120,"width":0,"height":0,"rotation":0,"visible":true,"properties":[{"name":"tileX","type":"int","value":23},{"name":"tileY","type":"int","value":17}]},{"id":119,"name":"bush","type":"","point":true,"x":1696,"y":1120,"width":0,"height":0,"rotation":0,"visible":true,"properties":[{"name":"tileX","type":"int","value":26},{"name":"tileY","type":"int","value":17}]},{"id":120,"name":"tree-detailed","type":"","point":true,"x":608,"y":1184,"width":0,"height":0,"rotation":0,"visible":true,"properties":[{"name":"tileX","type":"int","value":9},{"name":"tileY","type":"int","value":18}]},{"id":121,"name":"bush","type":"","point":true,"x":1440,"y":1184,"width":0,"height":0,"rotation":0,"visible":true,"properties":[{"name":"tileX","type":"int","value":22},{"name":"tileY","type":"int","value":18}]},{"id":122,"name":"flower-red","type":"","point":true,"x":1504,"y":1184,"width":0,"height":0,"rotation":0,"visible":true,"properties":[{"name":"tileX","type":"int","value":23},{"name":"tileY","type":"int","value":18}]},{"id":123,"name":"obelisk","type":"","point":true,"x":96,"y":1248,"width":0,"height":0,"rotation":0,"visible":true,"properties":[{"name":"tileX","type":"int","value":1},{"name":"tileY","type":"int","value":19}]},{"id":124,"name":"bush","type":"","point":true,"x":672,"y":1248,"width":0,"height":0,"rotation":0,"visible":true,"properties":[{"name":"tileX","type":"int","value":10},{"name":"tileY","type":"int","value":19}]},{"id":125,"name":"obelisk","type":"","point":true,"x":160,"y":1312,"width":0,"height":0,"rotation":0,"visible":true,"properties":[{"name":"tileX","type":"int","value":2},{"name":"tileY","type":"int","value":20}]},{"id":126,"name":"flower-red","type":"","point":true,"x":672,"y":1376,"width":0,"height":0,"rotation":0,"visible":true,"properties":[{"name":"tileX","type":"int","value":10},{"name":"tileY","type":"int","value":21}]},{"id":127,"name":"tree-detailed","type":"","point":true,"x":1568,"y":1376,"width":0,"height":0,"rotation":0,"visible":true,"properties":[{"name":"tileX","type":"int","value":24},{"name":"tileY","type":"int","value":21}]},{"id":128,"name":"stone-large","type":"","point":true,"x":2016,"y":1376,"width":0,"height":0,"rotation":0,"visible":true,"properties":[{"name":"tileX","type":"int","value":31},{"name":"tileY","type":"int","value":21}]},{"id":129,"name":"cactus-tall","type":"","point":true,"x":160,"y":1440,"width":0,"height":0,"rotation":0,"visible":true,"properties":[{"name":"tileX","type":"int","value":2},{"name":"tileY","type":"int","value":22}]},{"id":130,"name":"tree-default","type":"","point":true,"x":1632,"y":1440,"width":0,"height":0,"rotation":0,"visible":true,"properties":[{"name":"tileX","type":"int","value":25},{"name":"tileY","type":"int","value":22}]},{"id":131,"name":"stone-large","type":"","point":true,"x":2144,"y":1440,"width":0,"height":0,"rotation":0,"visible":true,"properties":[{"name":"tileX","type":"int","value":33},{"name":"tileY","type":"int","value":22}]},{"id":132,"name":"tree-detailed","type":"","point":true,"x":608,"y":1504,"width":0,"height":0,"rotation":0,"visible":true,"properties":[{"name":"tileX","type":"int","value":9},{"name":"tileY","type":"int","value":23}]},{"id":133,"name":"grass","type":"","point":true,"x":1888,"y":1504,"width":0,"height":0,"rotation":0,"visible":true,"properties":[{"name":"tileX","type":"int","value":29},{"name":"tileY","type":"int","value":23}]},{"id":134,"name":"cactus-tall","type":"","point":true,"x":224,"y":1632,"width":0,"height":0,"rotation":0,"visible":true,"properties":[{"name":"tileX","type":"int","value":3},{"name":"tileY","type":"int","value":25}]},{"id":135,"name":"cactus-short","type":"","point":true,"x":416,"y":1632,"width":0,"height":0,"rotation":0,"visible":true,"properties":[{"name":"tileX","type":"int","value":6},{"name":"tileY","type":"int","value":25}]},{"id":136,"name":"tree-default","type":"","point":true,"x":544,"y":1632,"width":0,"height":0,"rotation":0,"visible":true,"properties":[{"name":"tileX","type":"int","value":8},{"name":"tileY","type":"int","value":25}]},{"id":137,"name":"grass","type":"","point":true,"x":608,"y":1632,"width":0,"height":0,"rotation":0,"visible":true,"properties":[{"name":"tileX","type":"int","value":9},{"name":"tileY","type":"int","value":25}]},{"id":138,"name":"stone-large","type":"","point":true,"x":2336,"y":1632,"width":0,"height":0,"rotation":0,"visible":true,"properties":[{"name":"tileX","type":"int","value":36},{"name":"tileY","type":"int","value":25}]},{"id":139,"name":"rock-small","type":"","point":true,"x":416,"y":1760,"width":0,"height":0,"rotation":0,"visible":true,"properties":[{"name":"tileX","type":"int","value":6},{"name":"tileY","type":"int","value":27}]},{"id":140,"name":"rock-small","type":"","point":true,"x":288,"y":1824,"width":0,"height":0,"rotation":0,"visible":true,"properties":[{"name":"tileX","type":"int","value":4},{"name":"tileY","type":"int","value":28}]},{"id":141,"name":"bush","type":"","point":true,"x":1696,"y":1824,"width":0,"height":0,"rotation":0,"visible":true,"properties":[{"name":"tileX","type":"int","value":26},{"name":"tileY","type":"int","value":28}]},{"id":142,"name":"stone-flat","type":"","point":true,"x":2016,"y":1824,"width":0,"height":0,"rotation":0,"visible":true,"properties":[{"name":"tileX","type":"int","value":31},{"name":"tileY","type":"int","value":28}]},{"id":143,"name":"stone-large","type":"","point":true,"x":2144,"y":1824,"width":0,"height":0,"rotation":0,"visible":true,"properties":[{"name":"tileX","type":"int","value":33},{"name":"tileY","type":"int","value":28}]},{"id":144,"name":"obelisk","type":"","point":true,"x":416,"y":1888,"width":0,"height":0,"rotation":0,"visible":true,"properties":[{"name":"tileX","type":"int","value":6},{"name":"tileY","type":"int","value":29}]},{"id":145,"name":"tree-default","type":"","point":true,"x":800,"y":1888,"width":0,"height":0,"rotation":0,"visible":true,"properties":[{"name":"tileX","type":"int","value":12},{"name":"tileY","type":"int","value":29}]},{"id":146,"name":"cactus-tall","type":"","point":true,"x":800,"y":1952,"width":0,"height":0,"rotation":0,"visible":true,"properties":[{"name":"tileX","type":"int","value":12},{"name":"tileY","type":"int","value":30}]},{"id":147,"name":"lily","type":"","point":true,"x":864,"y":2016,"width":0,"height":0,"rotation":0,"visible":true,"properties":[{"name":"tileX","type":"int","value":13},{"name":"tileY","type":"int","value":31}]},{"id":148,"name":"flower-red","type":"","point":true,"x":928,"y":2016,"width":0,"height":0,"rotation":0,"visible":true,"properties":[{"name":"tileX","type":"int","value":14},{"name":"tileY","type":"int","value":31}]},{"id":149,"name":"grass","type":"","point":true,"x":1504,"y":2016,"width":0,"height":0,"rotation":0,"visible":true,"properties":[{"name":"tileX","type":"int","value":23},{"name":"tileY","type":"int","value":31}]},{"id":150,"name":"rock-small","type":"","point":true,"x":544,"y":2080,"width":0,"height":0,"rotation":0,"visible":true,"properties":[{"name":"tileX","type":"int","value":8},{"name":"tileY","type":"int","value":32}]},{"id":151,"name":"obelisk","type":"","point":true,"x":352,"y":2144,"width":0,"height":0,"rotation":0,"visible":true,"properties":[{"name":"tileX","type":"int","value":5},{"name":"tileY","type":"int","value":33}]},{"id":152,"name":"cactus-short","type":"","point":true,"x":736,"y":2144,"width":0,"height":0,"rotation":0,"visible":true,"properties":[{"name":"tileX","type":"int","value":11},{"name":"tileY","type":"int","value":33}]},{"id":153,"name":"palm-short","type":"","point":true,"x":1312,"y":2144,"width":0,"height":0,"rotation":0,"visible":true,"properties":[{"name":"tileX","type":"int","value":20},{"name":"tileY","type":"int","value":33}]},{"id":154,"name":"flower-red","type":"","point":true,"x":1888,"y":2144,"width":0,"height":0,"rotation":0,"visible":true,"properties":[{"name":"tileX","type":"int","value":29},{"name":"tileY","type":"int","value":33}]},{"id":155,"name":"palm-short","type":"","point":true,"x":1184,"y":2208,"width":0,"height":0,"rotation":0,"visible":true,"properties":[{"name":"tileX","type":"int","value":18},{"name":"tileY","type":"int","value":34}]},{"id":156,"name":"lily","type":"","point":true,"x":1504,"y":2208,"width":0,"height":0,"rotation":0,"visible":true,"properties":[{"name":"tileX","type":"int","value":23},{"name":"tileY","type":"int","value":34}]},{"id":157,"name":"flower-red","type":"","point":true,"x":1760,"y":2208,"width":0,"height":0,"rotation":0,"visible":true,"properties":[{"name":"tileX","type":"int","value":27},{"name":"tileY","type":"int","value":34}]},{"id":158,"name":"rock-small","type":"","point":true,"x":288,"y":2272,"width":0,"height":0,"rotation":0,"visible":true,"properties":[{"name":"tileX","type":"int","value":4},{"name":"tileY","type":"int","value":35}]},{"id":159,"name":"palm","type":"","point":true,"x":736,"y":2272,"width":0,"height":0,"rotation":0,"visible":true,"properties":[{"name":"tileX","type":"int","value":11},{"name":"tileY","type":"int","value":35}]},{"id":160,"name":"flower-red","type":"","point":true,"x":1440,"y":2272,"width":0,"height":0,"rotation":0,"visible":true,"properties":[{"name":"tileX","type":"int","value":22},{"name":"tileY","type":"int","value":35}]},{"id":161,"name":"flower-red","type":"","point":true,"x":1440,"y":2336,"width":0,"height":0,"rotation":0,"visible":true,"properties":[{"name":"tileX","type":"int","value":22},{"name":"tileY","type":"int","value":36}]},{"id":162,"name":"palm","type":"","point":true,"x":1312,"y":2400,"width":0,"height":0,"rotation":0,"visible":true,"properties":[{"name":"tileX","type":"int","value":20},{"name":"tileY","type":"int","value":37}]},{"id":163,"name":"flower-red","type":"","point":true,"x":2080,"y":2400,"width":0,"height":0,"rotation":0,"visible":true,"properties":[{"name":"tileX","type":"int","value":32},{"name":"tileY","type":"int","value":37}]},{"id":164,"name":"palm-short","type":"","point":true,"x":2144,"y":2400,"width":0,"height":0,"rotation":0,"visible":true,"properties":[{"name":"tileX","type":"int","value":33},{"name":"tileY","type":"int","value":37}]},{"id":165,"name":"cactus-tall","type":"","point":true,"x":416,"y":2464,"width":0,"height":0,"rotation":0,"visible":true,"properties":[{"name":"tileX","type":"int","value":6},{"name":"tileY","type":"int","value":38}]},{"id":166,"name":"tent","type":"","point":true,"x":672,"y":2464,"width":0,"height":0,"rotation":0,"visible":true,"properties":[{"name":"tileX","type":"int","value":10},{"name":"tileY","type":"int","value":38}]},{"id":167,"name":"palm","type":"","point":true,"x":1504,"y":2464,"width":0,"height":0,"rotation":0,"visible":true,"properties":[{"name":"tileX","type":"int","value":23},{"name":"tileY","type":"int","value":38}]},{"id":168,"name":"palm-short","type":"","point":true,"x":1952,"y":2464,"width":0,"height":0,"rotation":0,"visible":true,"properties":[{"name":"tileX","type":"int","value":30},{"name":"tileY","type":"int","value":38}]},{"id":169,"name":"palm","type":"","point":true,"x":2016,"y":2464,"width":0,"height":0,"rotation":0,"visible":true,"properties":[{"name":"tileX","type":"int","value":31},{"name":"tileY","type":"int","value":38}]},{"id":170,"name":"cactus-tall","type":"","point":true,"x":544,"y":2528,"width":0,"height":0,"rotation":0,"visible":true,"properties":[{"name":"tileX","type":"int","value":8},{"name":"tileY","type":"int","value":39}]},{"id":171,"name":"flower-red","type":"","point":true,"x":672,"y":2528,"width":0,"height":0,"rotation":0,"visible":true,"properties":[{"name":"tileX","type":"int","value":10},{"name":"tileY","type":"int","value":39}]},{"id":172,"name":"palm","type":"","point":true,"x":1056,"y":2528,"width":0,"height":0,"rotation":0,"visible":true,"properties":[{"name":"tileX","type":"int","value":16},{"name":"tileY","type":"int","value":39}]},{"id":173,"name":"palm-short","type":"","point":true,"x":1504,"y":2528,"width":0,"height":0,"rotation":0,"visible":true,"properties":[{"name":"tileX","type":"int","value":23},{"name":"tileY","type":"int","value":39}]},{"id":174,"name":"palm","type":"","point":true,"x":1888,"y":2528,"width":0,"height":0,"rotation":0,"visible":true,"properties":[{"name":"tileX","type":"int","value":29},{"name":"tileY","type":"int","value":39}]},{"id":175,"name":"lily","type":"","point":true,"x":2208,"y":2528,"width":0,"height":0,"rotation":0,"visible":true,"properties":[{"name":"tileX","type":"int","value":34},{"name":"tileY","type":"int","value":39}]}]},{"id":4,"name":"doors","type":"objectgroup","x":0,"y":0,"opacity":1,"visible":true,"draworder":"topdown","objects":[{"id":176,"name":"town-center","type":"","point":true,"x":1312,"y":1312,"width":0,"height":0,"rotation":0,"visible":true,"properties":[{"name":"tileX","type":"int","value":20},{"name":"tileY","type":"int","value":20}]},{"id":177,"name":"portal","type":"","point":true,"x":1760,"y":992,"width":0,"height":0,"rotation":0,"visible":true,"properties":[{"name":"tileX","type":"int","value":27},{"name":"tileY","type":"int","value":15}]},{"id":178,"name":"soul-registry","type":"","point":true,"x":864,"y":992,"width":0,"height":0,"rotation":0,"visible":true,"properties":[{"name":"tileX","type":"int","value":13},{"name":"tileY","type":"int","value":15}]},{"id":179,"name":"council","type":"","point":true,"x":1312,"y":736,"width":0,"height":0,"rotation":0,"visible":true,"properties":[{"name":"tileX","type":"int","value":20},{"name":"tileY","type":"int","value":11}]},{"id":180,"name":"velum-archive","type":"","point":true,"x":800,"y":1696,"width":0,"height":0,"rotation":0,"visible":true,"properties":[{"name":"tileX","type":"int","value":12},{"name":"tileY","type":"int","value":26}]},{"id":181,"name":"npc-forge","type":"","point":true,"x":1824,"y":1696,"width":0,"height":0,"rotation":0,"visible":true,"properties":[{"name":"tileX","type":"int","value":28},{"name":"tileY","type":"int","value":26}]}]}]}
